resources/icons/16px/high-voltage-pole.svg

<svg width="16" height="16" viewBox="0 0 16 16" fill="none" xmlns="http://www.w3.org/2000/svg">
<path d="M6 0H10C10.5523 0 11 0.447715 11 1V4H13V3H12.5C12.2239 3 12 2.77614 12 2.5C12 2.22386 12.2239 2 12.5 2H14.5C14.7761 2 15 2.22386 15 2.5C15 2.77614 14.7761 3 14.5 3H14V4C14.5523 4 15 4.44772 15 5C15 5.55228 14.5523 6 14 6V7H14.5C14.7761 7 15 7.22386 15 7.5C15 7.77614 14.7761 8 14.5 8H12.5C12.2239 8 12 7.77614 12 7.5C12 7.22386 12.2239 7 12.5 7H13V6H11V15C11 15.5523 10.5523 16 10 16C9.44771 16 9 15.5523 9 15V6H7V15C7 15.5523 6.55228 16 6 16C5.44772 16 5 15.5523 5 15V6H3V7H3.5C3.77614 7 4 7.22386 4 7.5C4 7.77614 3.77614 8 3.5 8H1.5C1.22386 8 1 7.77614 1 7.5C1 7.22386 1.22386 7 1.5 7H2V6C1.44772 6 1 5.55228 1 5C1 4.44772 1.44772 4 2 4V3H1.5C1.22386 3 1 2.77614 1 2.5C1 2.22386 1.22386 2 1.5 2H3.5C3.77614 2 4 2.22386 4 2.5C4 2.77614 3.77614 3 3.5 3H3V4H5V1C5 0.447715 5.44772 0 6 0ZM7 2V4H9V2H7Z" fill="black"/>
</svg>

<svg xmlns="http://www.w3.org/2000/svg" viewBox="0 0 16 16">
  <path d="M6 0h4a1 1 0 0 1 1 1v3h2V3h-.5a.5.5 0 0 1 0-1h2a.5.5 0 0 1 0 1H14v1a1 1 0 1 1 0 2v1h.5a.5.5 0 0 1 0 1h-2a.5.5 0 0 1 0-1h.5V6h-2v9a1 1 0 1 1-2 0V6H7v9a1 1 0 1 1-2 0V6H3v1h.5a.5.5 0 0 1 0 1h-2a.5.5 0 0 1 0-1H2V6a1 1 0 0 1 0-2V3h-.5a.5.5 0 0 1 0-1h2a.5.5 0 0 1 0 1H3v1h2V1a1 1 0 0 1 1-1m1 2v2h2V2z"/>
</svg>
